public/svg/streaming/daisuki.svg

<?xml version="1.0" encoding="UTF-8" standalone="no"?>
<svg width="45px" height="50px" viewBox="0 0 45 50" version="1.1" xmlns="http://www.w3.org/2000/svg" xmlns:xlink="http://www.w3.org/1999/xlink">
    <defs></defs>
    <g stroke="none" stroke-width="1" fill="none" fill-rule="evenodd">
        <g fill="#F9DA32">
            <path d="M0.051342812,0.240126382 C0.114533965,0.176935229 0.176935229,0.113744076 0.240126382,0.051342812 C6.95418641,0.0497630332 13.6674566,0.0529225908 20.3815166,0.0489731438 C20.7598736,0.00868878357 21.0995261,0.22906793 21.4802528,0.199052133 C21.807267,0.314375987 22.1540284,0.259083728 22.492891,0.2835703 C22.7835703,0.353870458 23.0750395,0.452606635 23.3799368,0.420221169 C23.7630332,0.368088468 24.1042654,0.598736177 24.4849921,0.601105845 C24.7622433,0.584518167 24.9968404,0.793048973 25.2740916,0.75671406 C25.5418641,0.700631912 25.7251185,0.982622433 25.9873618,0.969194313 C26.2551343,0.954186414 26.4881517,1.11769352 26.7575039,1.09399684 C27.1800948,1.21563981 27.5829384,1.4328594 28.0252765,1.47551343 C28.985782,1.84597156 29.9747235,2.14139021 30.8981043,2.60268562 C31.7219589,2.95892575 32.5102686,3.39178515 33.3033175,3.80805687 C33.4652449,3.94865719 33.6374408,4.07819905 33.8443918,4.14533965 C34.2519747,4.42417062 34.6793049,4.67298578 35.0750395,4.96840442 C35.3633491,5.14849921 35.5995261,5.39810427 35.8981043,5.56398104 C36.2669826,5.91311216 36.6761453,6.21484992 37.0797788,6.52369668 C37.6895735,7.12322275 38.2890995,7.73459716 38.8981043,8.33649289 C39.2132701,8.6793049 39.4731438,9.07030016 39.8033175,9.40047393 C40.0521327,9.68878357 40.2219589,10.0371248 40.4936809,10.3080569 C40.78594,10.8396524 41.2219589,11.2764613 41.4668246,11.8372828 C41.7669826,12.2440758 41.950237,12.7180095 42.2259084,13.1421801 C42.5466035,13.7819905 42.8633491,14.4273302 43.1066351,15.1011058 C43.2006319,15.3562401 43.4004739,15.57109 43.4060032,15.8554502 C43.5466035,16.314376 43.7922591,16.7424961 43.8720379,17.2187994 C43.8657188,17.3807267 43.9605055,17.514218 44.0276461,17.6532385 C44.128752,18.1350711 44.2180095,18.6248025 44.4123223,19.0797788 C44.4533965,19.2835703 44.3799368,19.5078989 44.485782,19.6982622 C44.6737757,20.0244866 44.5560821,20.4115324 44.6769352,20.7582938 C44.8293839,21.0987362 44.6879937,21.4794629 44.8048973,21.828594 C44.8546603,22.2164297 45.0055292,22.5908373 44.9802528,22.9865719 C44.9628752,23.9865719 45.0371248,24.985782 44.9834123,25.9849921 C44.9691943,26.4344392 44.9881517,26.8846761 44.9763033,27.3349131 C44.8965245,27.8048973 44.7274882,28.2685624 44.7535545,28.7511848 C44.7938389,29.1058452 44.5900474,29.4265403 44.6018957,29.7804107 C44.6090047,29.9699842 44.5379147,30.1484992 44.4747235,30.3238547 C44.3696682,30.5608215 44.4889415,30.8372828 44.3586098,31.0687204 C44.1445498,31.5829384 44.1176935,32.1524487 43.8965245,32.6627172 C43.8791469,32.9146919 43.7164297,33.1200632 43.7045814,33.3728278 C43.5189573,33.692733 43.4273302,34.0576619 43.3672986,34.4194313 C43.1840442,34.6737757 43.0718799,34.9668246 42.9873618,35.2661927 C42.8112164,35.5734597 42.7448657,35.9344392 42.5236967,36.2164297 C42.0055292,37.3933649 41.3025276,38.4842022 40.5845182,39.5505529 C40.049763,40.2985782 39.4225908,40.9747235 38.8720379,41.7109005 C38.3041074,42.2756714 37.7369668,42.8412322 37.1729858,43.4099526 C36.6966825,43.6848341 36.3530806,44.1374408 35.8744076,44.4107425 C35.4099526,44.8522907 34.8420221,45.1595577 34.3325434,45.5450237 C33.6824645,45.9249605 33.0529226,46.3396524 32.3862559,46.6903633 C32.0126382,46.9099526 31.5971564,47.0466035 31.2274882,47.2740916 C30.7424961,47.4723539 30.2503949,47.6563981 29.7835703,47.8941548 C29.1895735,48.0947867 28.6011058,48.3048973 28.0173776,48.5347551 C27.699842,48.6192733 27.3759874,48.6848341 27.0576619,48.7527646 C26.7748815,48.9439179 26.436019,48.9178515 26.135861,49.0647709 C25.8522907,49.056872 25.5860979,49.1350711 25.3301738,49.2496051 C25.0600316,49.2409163 24.8009479,49.293049 24.5521327,49.3973144 C24.1753555,49.3973144 23.8127962,49.5039494 23.4597156,49.6263823 C23.1540284,49.6461295 22.8412322,49.5916272 22.5442338,49.6872038 C22.2053712,49.7914692 21.8475513,49.7116904 21.5015798,49.7527646 C21.1224329,49.8364929 20.7290679,49.8364929 20.3593997,49.9589258 C13.6840442,49.9676145 7.00868878,49.9612954 0.333333333,49.9628752 C0.182464455,49.9873618 0.0537124803,49.8254344 0.0529225908,49.6879937 C0.0529225908,33.2053712 0.0552922591,16.7227488 0.051342812,0.240126382 L0.051342812,0.240126382 Z M25.3870458,7.35308057 C25.0505529,7.44312796 24.7077409,7.47472354 24.3609795,7.47393365 C23.9589258,7.62164297 23.5165877,7.57661927 23.1303318,7.77330174 C22.6492891,7.79304897 22.2385466,8.09241706 21.7748815,8.19747235 C21.135861,8.49052133 20.4818325,8.76698262 19.8981043,9.164297 C19.4794629,9.38704581 19.1248025,9.70458136 18.7274882,9.95971564 C18.0750395,10.4605055 17.5402844,11.0900474 16.9486572,11.6563981 C16.5086888,12.2772512 15.9913112,12.8554502 15.6769352,13.5552923 C15.3112164,14.0205371 15.1635071,14.6042654 14.878357,15.1153239 C14.7203791,15.4494471 14.7235387,15.8388626 14.5039494,16.1445498 C14.5134281,16.4897314 14.2812006,16.7827804 14.3262243,17.1350711 C14.1421801,17.5086888 14.14297,17.9257504 14.1579779,18.3325434 C14.1864139,18.6026856 14.0110585,18.8412322 14.0331754,19.1097946 C14.0347551,19.4818325 14.0339652,19.8530806 14.0331754,20.2243286 C14.0157978,20.4676145 14.1729858,20.6832543 14.157188,20.9273302 C14.1729858,21.278831 14.0955766,21.6532385 14.2638231,21.9802528 C14.3941548,22.2006319 14.2804107,22.4747235 14.4249605,22.6895735 C14.5173776,22.8159558 14.4636651,22.9818325 14.5276461,23.1169036 C14.6840442,23.4415482 14.7551343,23.7969984 14.8728278,24.135861 C15.1050553,24.5102686 15.1966825,24.9518167 15.4368088,25.3238547 C15.6864139,25.8870458 16.0797788,26.3680885 16.3917852,26.8965245 C16.5236967,27.100316 16.7101106,27.2606635 16.8459716,27.4620853 C17.2464455,28.0545024 17.8112164,28.5047393 18.3206951,28.9992101 C18.6540284,29.206951 18.9383886,29.4826224 19.2590837,29.7061611 C19.5687204,29.8657188 19.7938389,30.1484992 20.1169036,30.2843602 C20.5860979,30.4794629 21.0165877,30.7519747 21.4802528,30.9605055 C21.8578199,31.0821485 22.1966825,31.307267 22.5908373,31.3823065 C22.8380727,31.4004739 23.0466035,31.5663507 23.2969984,31.5695103 C23.5181675,31.5742496 23.7116904,31.7148499 23.9312796,31.721169 C24.2914692,31.6832543 24.6050553,31.9233807 24.9628752,31.9352291 C25.8578199,31.9399684 26.7535545,31.936019 27.6484992,31.9368088 C28.0789889,31.92891 28.4589258,31.650079 28.8949447,31.7235387 C29.0979463,31.6271722 29.3096367,31.5545024 29.5379147,31.5489731 C29.9968404,31.3870458 30.4802528,31.2883096 30.9146919,31.0608215 C31.9510269,30.728278 32.8617694,30.1097946 33.7424961,29.4865719 C34.1595577,29.2559242 34.4194313,28.8341232 34.8230648,28.5853081 C35.0489731,28.4454976 35.2006319,28.2227488 35.3451817,28.007109 C35.6990521,27.6421801 36.0450237,27.2693523 36.3191153,26.8388626 C36.6966825,26.4004739 36.9296998,25.8657188 37.2401264,25.3823065 C37.4146919,24.9865719 37.6453397,24.6153239 37.7772512,24.2014218 C37.9968404,23.7819905 38.0221169,23.2906793 38.2622433,22.8799368 C38.2203791,22.5529226 38.4526066,22.2812006 38.4368088,21.9597156 C38.4352291,21.5829384 38.6334913,21.2345972 38.5987362,20.8546603 C38.5766193,19.8988942 38.6398104,18.9383886 38.563981,17.985782 C38.4257504,17.5552923 38.4549763,17.0971564 38.2867299,16.6753555 C38.28594,16.4368088 38.1682464,16.228278 38.0805687,16.014218 C37.9391785,15.3775671 37.6729858,14.7756714 37.3696682,14.2022117 C37.0671406,13.4952607 36.6232227,12.8609795 36.1832543,12.2345972 C35.9383886,12 35.7661927,11.7061611 35.5521327,11.4470774 C35.1232227,11.0331754 34.7290679,10.5797788 34.2575039,10.2124803 C33.392575,9.48578199 32.4249605,8.88309637 31.4036335,8.40047393 C31.1018957,8.22827804 30.7448657,8.18957346 30.4447077,8.0150079 C30.1548183,7.91864139 29.8870458,7.75039494 29.5718799,7.78041074 C29.3191153,7.64691943 29.0481833,7.58688784 28.7638231,7.59557662 C28.5078989,7.49131122 28.2409163,7.43522907 27.9636651,7.46524487 C27.607425,7.50789889 27.2962085,7.25513428 26.9391785,7.30489731 C26.4225908,7.335703 25.8949447,7.25039494 25.3870458,7.35308057 L25.3870458,7.35308057 Z" id="Shape"></path>
        </g>
    </g>
</svg>

<svg width="45" height="50" viewBox="0 0 45 50" xmlns="http://www.w3.org/2000/svg"><path d="M.05.24C.116.177.178.114.24.05c6.714 0 13.427.003 20.142 0 .378-.04.718.18 1.098.15.327.114.674.06 1.013.084.29.07.582.17.887.136.383-.052.724.18 1.105.18.277-.015.512.193.79.157.267-.056.45.226.712.212.268-.016.5.148.77.124.423.122.826.34 1.268.382.96.37 1.95.665 2.873 1.127.824.356 1.612.79 2.405 1.205.162.14.334.27.54.337.41.28.836.528 1.232.823.288.18.525.43.823.596.37.35.778.65 1.182.96.61.6 1.21 1.21 1.818 1.812.315.343.575.734.905 1.064.25.29.42.637.69.908.293.532.73.968.974 1.53.3.406.483.88.76 1.304.32.64.636 1.285.88 1.96.094.254.293.47.3.753.14.46.385.887.465 1.364-.006.16.09.294.156.433.1.482.19.972.384 1.427.04.204-.032.428.074.618.188.326.07.714.19 1.06.153.34.012.72.13 1.07.05.388.2.763.174 1.16-.017 1 .057 1.998.003 2.997-.014.45.005.9-.007 1.35-.08.47-.25.934-.222 1.416.04.356-.164.677-.152 1.03.007.19-.064.368-.127.544-.105.237.014.513-.116.745-.215.513-.242 1.082-.463 1.593-.018.252-.18.457-.192.71-.186.32-.278.685-.338 1.046-.183.254-.295.547-.38.846-.176.307-.242.668-.463.95-.518 1.177-1.22 2.268-1.94 3.335-.534.75-1.16 1.425-1.712 2.16-.568.566-1.135 1.13-1.7 1.7-.475.275-.82.727-1.298 1-.464.442-1.032.75-1.54 1.135-.652.38-1.28.795-1.948 1.145-.373.22-.79.357-1.16.584-.484.198-.976.382-1.442.62-.594.2-1.183.41-1.767.64-.317.085-.64.15-.96.22-.282.19-.62.164-.92.31-.285-.007-.55.07-.807.186-.27-.01-.53.043-.778.147-.377 0-.74.107-1.092.23-.306.02-.62-.035-.916.06-.34.104-.696.025-1.042.066-.38.083-.773.083-1.143.206-6.676.008-13.35 0-20.027.003-.15.024-.28-.138-.28-.275C.053 33.205.055 16.723.05.24zm25.337 7.113c-.336.09-.68.122-1.026.12-.4.15-.843.104-1.23.3-.48.02-.89.32-1.355.424-.64.294-1.293.57-1.877.967-.42.223-.773.54-1.17.796-.653.5-1.188 1.13-1.78 1.696-.44.62-.957 1.2-1.27 1.9-.367.465-.514 1.048-.8 1.56-.158.333-.154.723-.374 1.03.01.344-.223.637-.178.99-.184.373-.183.79-.168 1.197.028.27-.147.508-.125.777.002.372 0 .743 0 1.114-.017.244.14.46.124.703.016.352-.06.726.107 1.053.13.22.016.495.16.71.093.126.04.292.104.427.156.325.227.68.345 1.02.232.373.324.815.564 1.187.25.563.643 1.044.955 1.573.132.203.318.364.454.565.4.593.965 1.043 1.475 1.537.334.207.618.483.94.706.31.16.534.442.857.578.47.195.9.468 1.363.677.378.122.717.347 1.11.422.248.018.457.184.707.188.22.004.415.145.634.15.36-.037.675.203 1.033.215.895.005 1.79 0 2.685.002.43-.008.81-.287 1.247-.213.203-.097.415-.17.643-.175.46-.163.942-.262 1.377-.49 1.036-.332 1.947-.95 2.827-1.573.418-.23.677-.653 1.08-.902.227-.14.38-.362.523-.578.354-.365.7-.738.974-1.168.377-.44.61-.974.92-1.458.175-.395.405-.767.537-1.18.22-.42.245-.91.485-1.322-.042-.327.19-.6.175-.92-.002-.377.196-.725.162-1.105-.023-.956.04-1.917-.036-2.87-.138-.43-.11-.888-.277-1.31 0-.238-.12-.447-.206-.66-.14-.637-.407-1.24-.71-1.813-.303-.707-.747-1.34-1.187-1.967-.245-.235-.417-.53-.63-.788-.43-.414-.824-.867-1.295-1.235-.865-.726-1.833-1.33-2.854-1.812-.302-.172-.66-.21-.96-.385-.29-.096-.557-.265-.872-.235-.253-.133-.524-.193-.808-.184-.256-.105-.523-.16-.8-.13-.357.042-.668-.21-1.025-.16-.517.03-1.045-.056-1.553.047z" fill="#F9DA32" fill-rule="evenodd"/></svg>
